X:7
T:So Early In The Morning (c)
M:2/4
L:1/16
Q:1/4=120
K:D
F2F2 D2D2|G3G  E4|G2G2 E2EE|FAG2 E2A2|
A2A2 G2E2|D4   E4|F2A2 A2G2|F2D2 D4  |
F2A2 A4  |G2B2 B4|ddd2 ddF2|A2G2 E2E2|
A2A2 G2E2|D4   E4|F2A2 A2G2|F2D2 D4  ||
